assets/images/logo.svg

<svg width="154" height="47" viewBox="0 0 154 47" fill="none" xmlns="http://www.w3.org/2000/svg">
<path d="M30.8649 25.0603C30.8734 25.9407 30.5858 26.4573 29.8227 26.8903C26.6022 28.7288 23.4158 30.6338 20.2095 32.4955C18.9082 33.2517 18.5152 33.0237 18.5095 31.5199C18.4953 27.7706 18.4811 24.0213 18.5209 20.2691C18.5323 19.3888 18.2561 18.8577 17.4816 18.4392C15.9525 17.5155 14.1101 16.3899 12.3077 15.3191C12.3077 11.0675 12.3048 7.12774 12.3077 3.19082C12.3105 1.29451 12.638 1.1069 14.2753 2.06516C19.4093 5.06403 24.532 8.08599 29.6803 11.056C30.5203 11.5409 30.8877 12.072 30.8706 13.088C30.8108 17.0797 30.825 21.0686 30.8649 25.0603Z" fill="#000"/>
<path d="M12.3696 17.1903C12.3667 25.6991 12.3696 34.2079 12.3639 42.7196C12.3639 44.7458 12.0934 44.9074 10.382 43.8799C7.28108 42.0211 4.20292 40.1219 1.08205 38.3007C0.273361 37.8273 0 37.276 0 36.3438C0.0313226 27.6416 0.017085 18.9394 0.0227801 10.2372C0.0227801 8.53135 0.350243 8.34663 1.84234 9.2154C5.24796 11.1896 8.64219 13.1812 12.3069 15.3199C12.324 15.7327 12.3724 16.6938 12.3696 17.1903Z" fill="#000"/>
<path d="M57.9651 23.8845C59.4821 24.2298 60.6723 24.9452 61.5356 26.0305C62.4113 27.1035 62.8491 28.5403 62.8491 30.341C62.8491 33.0173 61.8131 35.0215 59.7411 36.3535C57.6814 37.6855 54.4316 38.3515 49.9916 38.3515C48.9309 38.3515 47.7223 38.296 46.3656 38.185C45.0089 38.074 43.7879 37.9322 42.7026 37.7595V11.138C43.9236 10.8667 45.2556 10.657 46.6986 10.509C48.1416 10.3487 49.5291 10.2685 50.8611 10.2685C53.4264 10.2685 55.5293 10.5398 57.1696 11.0825C58.8223 11.6128 60.0494 12.4392 60.8511 13.5615C61.6651 14.6838 62.0721 16.133 62.0721 17.909C62.0721 19.3273 61.7083 20.5792 60.9806 21.6645C60.2529 22.7375 59.2478 23.4775 57.9651 23.8845ZM51.8971 15.208C50.9968 15.208 50.0163 15.2882 48.9556 15.4485V21.461H51.7491C52.8221 21.461 53.6669 21.3562 54.2836 21.1465C54.9126 20.9245 55.3566 20.5915 55.6156 20.1475C55.8869 19.6912 56.0226 19.093 56.0226 18.353C56.0226 17.2307 55.7081 16.429 55.0791 15.948C54.4501 15.4547 53.3894 15.208 51.8971 15.208ZM51.7861 33.3935C53.0194 33.3935 53.9999 33.2763 54.7276 33.042C55.4553 32.8077 55.9794 32.4438 56.3001 31.9505C56.6331 31.4572 56.7996 30.7973 56.7996 29.971C56.7996 28.7993 56.4358 27.9483 55.7081 27.418C54.9928 26.8753 53.8458 26.604 52.2671 26.604H48.9556V33.264C49.9916 33.3503 50.9351 33.3935 51.7861 33.3935ZM65.0636 38V8.104H71.3906V38H65.0636ZM82.6687 38.3885C79.8073 38.3885 77.6243 37.5375 76.1197 35.8355C74.615 34.1212 73.8627 31.5003 73.8627 27.973C73.8627 24.384 74.615 21.72 76.1197 19.981C77.6243 18.242 79.8073 17.3725 82.6687 17.3725C85.5177 17.3725 87.7007 18.2543 89.2177 20.018C90.7347 21.7817 91.4932 24.4148 91.4932 27.9175C91.4932 31.4572 90.7347 34.0903 89.2177 35.817C87.713 37.5313 85.53 38.3885 82.6687 38.3885ZM82.6687 33.708C83.2237 33.708 83.6677 33.56 84.0007 33.264C84.3337 32.9557 84.5865 32.3883 84.7592 31.562C84.9318 30.7357 85.0182 29.5455 85.0182 27.9915C85.0182 26.4005 84.9257 25.1733 84.7407 24.31C84.568 23.4467 84.309 22.8608 83.9637 22.5525C83.6307 22.2318 83.199 22.0715 82.6687 22.0715C82.1383 22.0715 81.7005 22.2318 81.3552 22.5525C81.0222 22.8608 80.7632 23.4405 80.5782 24.2915C80.4055 25.1302 80.3192 26.3327 80.3192 27.899C80.3192 29.49 80.4055 30.7048 80.5782 31.5435C80.7508 32.3822 81.0037 32.9557 81.3367 33.264C81.6697 33.56 82.1137 33.708 82.6687 33.708ZM100.678 46.51C99.7772 46.51 98.8152 46.4545 97.7915 46.3435C96.7679 46.2325 95.8305 46.0722 94.9795 45.8625V40.8305C96.7185 41.2992 98.4267 41.5335 100.104 41.5335C101.67 41.5335 102.824 41.1882 103.564 40.4975C104.316 39.8192 104.692 38.6722 104.692 37.0565V35.8355H104.378C103.971 36.5878 103.416 37.1737 102.713 37.593C102.01 38 101.189 38.2035 100.252 38.2035C99.068 38.2035 97.9704 37.852 96.959 37.149C95.9477 36.446 95.1275 35.3483 94.4985 33.856C93.8695 32.3513 93.555 30.4767 93.555 28.232C93.555 24.6553 94.3999 21.9543 96.0895 20.129C97.7915 18.3037 100.443 17.3848 104.045 17.3725C105.229 17.3725 106.437 17.4712 107.671 17.6685C108.916 17.8658 110.032 18.1495 111.019 18.5195V35.9465C111.019 39.6342 110.168 42.3167 108.466 43.994C106.764 45.6713 104.168 46.51 100.678 46.51ZM103.009 32.968C103.317 32.968 103.619 32.9187 103.915 32.82C104.223 32.709 104.482 32.561 104.692 32.376V22.312C104.199 22.238 103.792 22.201 103.471 22.201C102.706 22.201 102.071 22.3675 101.566 22.7005C101.06 23.0212 100.671 23.5823 100.4 24.384C100.141 25.1857 100.012 26.2772 100.012 27.6585C100.012 29.0645 100.123 30.156 100.345 30.933C100.567 31.6977 100.893 32.228 101.325 32.524C101.757 32.82 102.318 32.968 103.009 32.968ZM114.24 38V17.7055H120.604V38H114.24ZM117.422 15.2265C116.115 15.2265 115.141 14.9305 114.499 14.3385C113.858 13.7342 113.537 12.8708 113.537 11.7485C113.537 10.6385 113.858 9.78133 114.499 9.177C115.141 8.57266 116.115 8.2705 117.422 8.2705C118.73 8.2705 119.704 8.57266 120.345 9.177C120.999 9.78133 121.326 10.6385 121.326 11.7485C121.326 12.8708 120.999 13.7342 120.345 14.3385C119.704 14.9305 118.73 15.2265 117.422 15.2265ZM134.86 12.84C133.602 12.84 132.696 13.0867 132.141 13.58C131.598 14.0733 131.327 14.8565 131.327 15.9295V17.7055H135.767V22.645H131.327V38H125.092V22.645H122.354V17.7055H125.092V16.3365C125.092 13.5738 125.832 11.4525 127.312 9.9725C128.792 8.48017 130.981 7.734 133.88 7.734C134.829 7.734 135.711 7.808 136.525 7.956V12.9695C135.785 12.8832 135.23 12.84 134.86 12.84ZM147.077 17.7055H153.33L145.597 46.14H139.418L141.657 38H139.622L134.109 17.7055H140.621L143.821 31.895L147.077 17.7055Z" fill="#000"/>
</svg>

<svg width="154" height="47" fill="none" xmlns="http://www.w3.org/2000/svg"><path d="M30.865 25.06c.008.88-.28 1.397-1.042 1.83-3.22 1.839-6.407 3.744-9.614 5.605-1.3.757-1.694.529-1.7-.975-.014-3.75-.028-7.499.012-11.25.011-.881-.265-1.412-1.04-1.83-1.529-.925-3.37-2.05-5.173-3.12 0-4.252-.003-8.192 0-12.13.002-1.895.33-2.083 1.967-1.125 5.134 2.999 10.257 6.021 15.405 8.991.84.485 1.208 1.016 1.19 2.032-.06 3.992-.045 7.98-.005 11.972ZM12.37 17.19c-.003 8.51 0 17.018-.006 25.53 0 2.026-.27 2.187-1.982 1.16-3.1-1.859-6.18-3.758-9.3-5.58C.273 37.828 0 37.277 0 36.345c.031-8.702.017-17.405.023-26.107 0-1.706.327-1.89 1.82-1.022 3.405 1.975 6.8 3.966 10.464 6.105.017.413.065 1.374.063 1.87ZM57.965 23.884c1.517.346 2.707 1.061 3.57 2.146.876 1.073 1.314 2.51 1.314 4.311 0 2.676-1.036 4.68-3.108 6.012-2.06 1.332-5.31 1.998-9.75 1.998-1.06 0-2.269-.055-3.625-.166a48.827 48.827 0 0 1-3.663-.425V11.138a34.875 34.875 0 0 1 3.996-.629 37.73 37.73 0 0 1 4.162-.24c2.565 0 4.668.27 6.309.813 1.652.53 2.88 1.357 3.681 2.48.814 1.122 1.221 2.571 1.221 4.347 0 1.418-.364 2.67-1.091 3.756-.728 1.073-1.733 1.813-3.016 2.22Zm-6.068-8.676c-.9 0-1.88.08-2.941.24v6.013h2.793c1.073 0 1.918-.105 2.535-.314.629-.223 1.073-.555 1.332-1 .27-.456.407-1.054.407-1.794 0-1.122-.315-1.924-.944-2.405-.629-.493-1.69-.74-3.182-.74Zm-.11 18.186c1.232 0 2.213-.118 2.94-.352.728-.234 1.252-.598 1.573-1.091.333-.494.5-1.154.5-1.98 0-1.172-.364-2.023-1.092-2.553-.715-.543-1.862-.814-3.44-.814h-3.312v6.66c1.036.086 1.98.13 2.83.13ZM65.063 38V8.104h6.327V38h-6.327Zm17.605.389c-2.862 0-5.045-.852-6.55-2.553-1.504-1.715-2.256-4.336-2.256-7.863 0-3.589.752-6.253 2.257-7.992 1.504-1.739 3.687-2.609 6.549-2.609 2.849 0 5.032.882 6.549 2.646 1.517 1.764 2.275 4.397 2.275 7.9 0 3.54-.758 6.172-2.275 7.899-1.505 1.714-3.688 2.572-6.55 2.572Zm0-4.681c.555 0 .999-.148 1.332-.444.333-.308.585-.876.758-1.702.173-.826.26-2.017.26-3.57 0-1.591-.093-2.819-.278-3.682-.173-.863-.432-1.45-.777-1.758-.333-.32-.765-.48-1.295-.48-.53 0-.968.16-1.314.48-.333.309-.592.889-.777 1.74-.172.838-.259 2.04-.259 3.607 0 1.591.087 2.806.26 3.645.172.838.425 1.412.758 1.72.333.296.777.444 1.332.444Zm18.009 12.802c-.9 0-1.863-.055-2.886-.166a21.454 21.454 0 0 1-2.813-.482V40.83c1.74.47 3.448.703 5.125.703 1.566 0 2.72-.345 3.46-1.035.752-.679 1.128-1.826 1.128-3.441v-1.221h-.314a4.484 4.484 0 0 1-1.665 1.757c-.703.407-1.524.61-2.461.61-1.184 0-2.282-.351-3.293-1.054-1.011-.703-1.832-1.8-2.46-3.293-.63-1.505-.944-3.38-.944-5.624 0-3.577.845-6.278 2.534-8.103 1.703-1.825 4.354-2.744 7.956-2.757 1.184 0 2.392.1 3.626.297 1.245.197 2.361.48 3.348.85v17.428c0 3.687-.851 6.37-2.553 8.047-1.702 1.677-4.298 2.516-7.788 2.516Zm2.331-13.542c.308 0 .61-.05.906-.148.308-.111.567-.259.777-.444V22.312a8.53 8.53 0 0 0-1.221-.111c-.765 0-1.4.166-1.905.5-.506.32-.895.881-1.166 1.683-.259.802-.388 1.893-.388 3.274 0 1.406.111 2.498.333 3.275.222.765.548 1.295.98 1.591.432.296.993.444 1.684.444ZM114.24 38V17.706h6.364V38h-6.364Zm3.182-22.773c-1.307 0-2.281-.296-2.923-.889-.641-.604-.962-1.467-.962-2.59 0-1.11.321-1.967.962-2.571.642-.604 1.616-.906 2.923-.906 1.308 0 2.282.302 2.923.906.654.604.981 1.462.981 2.572 0 1.122-.327 1.985-.981 2.59-.641.591-1.615.887-2.923.887Zm17.438-2.387c-1.258 0-2.164.247-2.719.74-.543.493-.814 1.277-.814 2.35v1.776h4.44v4.939h-4.44V38h-6.235V22.645h-2.738v-4.94h2.738v-1.368c0-2.763.74-4.884 2.22-6.364 1.48-1.493 3.669-2.239 6.568-2.239.949 0 1.831.074 2.645.222v5.013c-.74-.086-1.295-.129-1.665-.129Zm12.217 4.866h6.253l-7.733 28.434h-6.179l2.239-8.14h-2.035l-5.513-20.294h6.512l3.2 14.189 3.256-14.19Z" fill="#000"/></svg>
